X:1
T:Ye people all with one accord
T:Ye people all with one accord (Matthew Cooke)
C:Matthew Cooke
Z:p18, Twelve Psalm
Z:Tunes, London: [c1791]
%%score [ 1 2 3 4 ]
L:1/8
M:4/4
K:E
V:1 treble nm="Air" snm="S."
V:2 treble nm="[Alto]" snm="A."
V:3 treble-8 transpose=-12 nm="Tenor" snm="T."
V:4 bass nm="[Bass]" snm="B."
V:1
 B | e2 (dc) B3 c | B3 A (AG) z B | c2 e2 A2 G2 | (GF) z B (d/c/B/c/ d)(c/B/) | e2 z2 z4 | %6
w: God|o’er the _ hea- then|reigns, and sits _ Up-|on his ho- ly|throne: _ The prin- * * * * ces _|of|
w: Ye|peo- ple _ all with|one ac- cord _ Clap|hands, shout and re-|joice; _ Be glad _ _ _ _ and _|sing|
w: Our|God as- * cen- ded|up on high _ With|joy and plea- sant|noise; _ The Lord _ _ _ _ goes _|up|
 z2 z e (ec)(dB) | (^AB)(cd) e3 d | g2 (fB) (dc)(B^A) | B2 z B d2 f2 | d3 e E2 A2 | %11
w: Them joi- * ned _|ev- * ’ry _ one, have|joi- ned _ ev- * ’ry _|one To Ab- ra’m’s|peo- ple, for our|
w: With sweet _ and _|plea- * sant _ voice, with|sweet and _ plea- * sant _|voice; For high the|Lord and dread- ful|
w: With trum- * pet’s _|roy- * al _ voice, with|trum- pet’s _ roy- * al _|voice. Sing prai- ses|to our God, sing|
 (A G2) B G2 (eB) | (cB)(AG) F z z2 | z8 | z BBB e3 e | (dc)(Bd) e3 B | (cB)(de) G2 F2 | E8 |] %18
w: God _ Who is ex- *|al- * ted _ high,||As with a buck- ler|doth _ de- * fend The|earth _ con- * ti- nual-|ly.|
w: is, _ His won- ders _|ma- * ni- * fold,||A migh- ty King he|is _ like- * wise, In|all _ the _ earth ex-|toll’d.|
w: praise, _ Sing prai- ses _|to _ our _ King,||For God is King of|all _ the _ earth: All|skil- * ful _ prai- ses|sing.|
V:2
 G | G2 F2 E3 E | E2 D2 E2 z E | E2 E2 F2 E2 | (ED) z D (F/E/D/E/ F)(E/D/) | %5
w: God|o’er the hea- then|reigns, and sits Up-|on his ho- ly|throne: _ The prin- * * * * ces _|
w: Ye|peo- ple all with|one ac- cord Clap|hands, shout and re-|joice; _ Be glad _ _ _ _ and _|
w: Our|God as- cen- ded|up on high With|joy and plea- sant|noise; _ The Lord _ _ _ _ goes _|
 G2 z B, (C/B,/C/D/ E)(D/C/) | (CB,) z E C2 F2 | F3 F F3 F | E2 F2 G2 (DC) | D2 z D (FD)(EC) | %10
w: of the peo- * * * * ple _|have _ Them joi- ned|ev- ’ry one, have|joi- ned ev- ’ry _|one To Ab- * ra’m’s _|
w: sing un- to _ _ _ _ the _|Lord _ With sweet and|plea- sant voice, with|sweet and plea- sant _|voice; For high _ the _|
w: up a- bove _ _ _ _ the _|sky _ With trum- pet’s|roy- al voice, with|trum- pet’s roy- al _|voice. Sing prai- * ses _|
 F3 B, E2 D2 | E3 F E2 E2 | E2 (FE) D z z2 | z4 z EEE | BBGF E2 A2 | (FE)(DF) G3 E | %16
w: peo- ple, for our|God Who is ex-|al- ted _ high,|As with a|buck- ler, with a buck- ler|doth _ de- * fend The|
w: Lord and dread- ful|is, His won- ders|ma- ni- * fold,|A migh- ty|King, a migh- ty King he|is _ like- * wise, In|
w: to our God, sing|praise, Sing prai- ses|to our _ King,|For God is|King, for God is King of|all _ the _ earth: All|
 E2 (AG) E2 B,2 | B,8 |] %18
w: earth con- * ti- nual-|ly.|
w: all the _ earth ex-|toll’d.|
w: skil- ful _ prai- ses|sing.|
V:3
 B | B2 A2 G3 A | B2 B2 B2 z B | c2 B2 A2 B2 | B2 z B B2 A2 | G2 z E E3 E | (AG) z B ^A2 B2 | %7
w: God|o’er the hea- then|reigns, and sits Up-|on his ho- ly|throne: The prin- ces|of the peo- ple|have _ Them joi- ned|
w: Ye|peo- ple all with|one ac- cord Clap|hands, shout and re-|joice; Be glad and|sing un- to the|Lord _ With sweet and|
w: Our|God as- cen- ded|up on high With|joy and plea- sant|noise; The Lord goes|up a- bove the|sky _ With trum- pet’s|
 (cB)(^AB) c3 B | B2 B2 G2 F2 | F2 z F B2 F2 | B3 E c2 B2 | B3 B B2 B2 | E2 A2 F z z2 | %13
w: ev- * ’ry _ one, have|joi- ned ev- ’ry|one To Ab- ra’m’s|peo- ple, for our|God Who is ex-|al- ted high,|
w: plea- * sant _ voice, with|sweet and plea- sant|voice; For high the|Lord and dread- ful|is, His won- ders|ma- ni- fold,|
w: roy- * al _ voice, with|trum- pet’s roy- al|voice. Sing prai- ses|to our God, sing|praise, Sing prai- ses|to our King,|
 z BBB e2 B2 | B3 B A2 A2 | B2 F2 B3 B | E2 B2 B3 A | G8 |] %18
w: As with a buck- ler,|with a buck- ler|doth de- fend The|earth con- ti- nual-|ly.|
w: A migh- ty King, a|migh- ty King he|is like- wise, In|all the earth ex-|toll’d.|
w: For God is King, for|God is King of|all the earth: All|skil- ful prai- ses|sing.|
V:4
 E, | E,2 F,2 G,3 A, | B,2 B,,2 E,2 z G, | A,2 G,2 D,2 E,2 | B,,2 z2 z4 | %5
w: God|o’er the hea- then|reigns, and sits Up-|on his ho- ly|throne:|
w: Ye|peo- ple all with|one ac- cord Clap|hands, shout and re-|joice;|
w: Our|God as- cen- ded|up on high With|joy and plea- sant|noise;|
 z2 z G,, (A,,/G,,/A,,/B,,/ C,)(B,,/A,,/) | E,2 G,2 F,2 (B,,D,) | (E,D,)(C,B,,) ^A,,3 B,, | %8
w: the peo- * * * * ple _|have Them joi- ned _|ev- * ’ry _ one, have|
w: un- to _ _ _ _ the _|Lord With sweet and _|plea- * sant _ voice, with|
w: a- bove _ _ _ _ the _|sky With trum- pet’s _|roy- * al _ voice, with|
 E,2 D,2 E,2 F,2 | B,,2 z B,, B,2 ^A,2 | B,3 G, A,2 F,2 | E,3 D, E,2 G,2 | A,2 A,,2 B,,B,,B,,B,, | %13
w: joi- ned ev- ’ry|one To Ab- ra’m’s|peo- ple, for our|God Who is ex-|al- ted high, As with a|
w: sweet and plea- sant|voice; For high the|Lord and dread- ful|is, His won- ders|ma- ni- fold, A migh- ty|
w: trum- pet’s roy- al|voice. Sing prai- ses|to our God, sing|praise, Sing prai- ses|to our King, For God is|
"^Notes:The first pair of verses (8 lines) of the text is underlaid in the source, with the other verses given here printed afterthe music: these have been underlaid editorially.Original clefs treble, alto, tenor, bass." E,2 D,2 G,3 E, | %14
w: buck- ler doth, as|
w: King he is, a|
w: King of all, for|
 D,2 (E,D,) C,2 C2 | B,3 A, G,3 G, | (A,G,)(F,E,) B,,2 B,,2 | E,8 |] %18
w: with a _ buck- ler|doth de- fend The|earth _ con- * ti- nual-|ly.|
w: migh- ty _ King he|is like- wise, In|all _ the _ earth ex-|toll’d.|
w: God is _ King of|all the earth: All|skil- * ful _ prai- ses|sing.|

